X: 40357
T: Tom Connor's
R: hornpipe
M: 4/4
K: Gmajor
dBGF GBdB|cAFA DGF/G/F/E|DGGF GBdB|c/d/c AG Agfe|
d2 cA GBdB|A/c/A FA DAFA|g2 {a}gf ecAF|A/B/A GF GABc|
cdcA G3 B|AcFA DGFE|DGGF GBdB|BcBc Agfe|
d2 cA G3 B|A/B/A FA DAFA|g2 {a}gf ecAF|A/B/A GF GA B/B/c||
d2 g2 dgfg|dgfg fd^cd|eaag abag|fgag fdBc|
dc{d}cA G3 B|A/c/A FA DAFA|g2 {a}gf ecAF|A/B/A GF GABc|
d~g3 dgfg|dgfg fd^cd|ea{b}ag abag|fbag fdBc|
dc{d}cA G3 B|A/c/A FA DAFA|g2 {a}gf ecAF|DGGF GABc||

